X: 22
T: JIGS: Paddy Fahey's Set
T: Paddy Fahey's (Gmin)
C: C: Paddy Fahey / Seán Ryan; S: Martin Hayes
C: Set Leaders: Oliushka, Anton
Z: Anton Zille ed., Oleg Naumov arr.; Jeff Finkelstein at The Session
N: https://thesession.org/members/26966/sets/95962
R: Jig
M: 6/8
L: 1/8
Q: 3/8=116
K: Gdor
|:"Gm"DGA B2c|cBc d2g|"Bb"gfd Bcd|"C"cAG FDC|
"Gm"DGA ~B3|"(Bb)"cBc d2g|"(C)"gfd Bcd|1 "F"cAF G2D:|2 "F"cAF GBd||
|:"Gm"g3 "(F)"fga|"Gm"gfd Bcd|"F"c2A ~f3|agf def|
"Eb"g2a bag|"(F)"fdg fdc|"Bb (Dm)"B2G "(C)"Adc|1 "F"AGF GBd:|2 "F"AGF G2D||
T: Castle (Dmin)
K: Ddor
|:"Dm"fed edc|dcA GEC|DED AcA|"(Bb)"GAc "C"dcA|
"Dm"f/g/af edc|dcA GEC|"(C)"DED AcA|1 "G5"GEC D3:|2 "G5"GEC D2E||
|:"Dm"FED ~d3|edc AGE|"C"CEG cBc|CEG FED|
"Bb"~F3 ~G3|"Am"AGA cde|"Bb"dcA GEC|1 "Am"A,B,C "(C)"D2E:|2 "Am"A,B,C "C"D3||

